X:1
T:The Female Highwayman.
B:Everyman's Book of British Ballads. Edited by Roy Palmer.
S:Mr J. Francis, Castle Bromwich, Warwickshire.
M:3/2
L:1/4
K:F
C F A|c3 F E F|
w:Pris-cil-la on one sum-mer's 
C3 C F A|c3 c =B c|
w:day Dressed her-self up in men's ar-
A3 c1/2c1/2 d d|c2 (AF) (GF) D|
w:ray; With a brace of pist-*ols by *her
C3 C F A|d d c A G3/2 F1/2 |D3||
w:side All for to meet her true love she did ride. 